X: 2
T: The Road To Lisdoonvarna
R: reel
M: 4/4
L: 1/8
K: Dmix
d>e fd|cA A>c|BG GA/B/|cA A2|d>e fd|cA Ac|BG AF|D2 D2:||:A>B AG|AB c2|G>A GF|EF GE|A>B AG|AB cA|BG AF|D2 D2:|defd cAAc|BGGB cAAc|defd cAAc|BGAF D2D2:||:ABAG ABcA|GAGF EFGE|ABAG ABcA|BGAF D2D2:|


Tune 249	Setting 12970

